pk/hand-painted-plate.svg

<svg viewBox="0 0 48 48" fill="none" xmlns="http://www.w3.org/2000/svg" height="1em" width="1em">
  <path d="M18 10H42C43.1046 10 44 10.8954 44 12V38C44 39.1046 43.1046 40 42 40H18" stroke="black" stroke-width="4"/>
  <path d="M4 12C4 10.8954 4.89543 10 6 10H18V40H6C4.89543 40 4 39.1046 4 38V12Z" fill="#2F88FF" stroke="black" stroke-width="4"/>
  <path d="M11 17V21" stroke="white" stroke-width="4" stroke-linecap="round" stroke-linejoin="round"/>
  <path d="M37 16L25 33" stroke="black" stroke-width="4" stroke-linecap="round" stroke-linejoin="round"/>
  <rect x="9" y="25" width="4" height="4" rx="2" fill="white"/>
  <rect x="9" y="31" width="4" height="4" rx="2" fill="white"/>
</svg>

<svg viewBox="0 0 48 48" fill="none" xmlns="http://www.w3.org/2000/svg" height="1em" width="1em">
  <path d="M18 10h24a2 2 0 0 1 2 2v26a2 2 0 0 1-2 2H18" stroke="#000" stroke-width="4"/>
  <path d="M4 12a2 2 0 0 1 2-2h12v30H6a2 2 0 0 1-2-2V12Z" fill="#2F88FF" stroke="#000" stroke-width="4"/>
  <path d="M11 17v4" stroke="#fff" stroke-width="4" stroke-linecap="round" stroke-linejoin="round"/>
  <path d="M37 16 25 33" stroke="#000" stroke-width="4" stroke-linecap="round" stroke-linejoin="round"/>
  <rect x="9" y="25" width="4" height="4" rx="2" fill="#fff"/>
  <rect x="9" y="31" width="4" height="4" rx="2" fill="#fff"/>
</svg>
